X:1
T:Cantabo Domino
T:Velthur Tognoni 30 Maggio 2008
T:Cantabo Domino
C:Velthur Tognoni
C:30 Maggio 2008
%%score [ 1 2 3 4 ]
L:1/8
Q:1/2=64
M:4/4
K:Ab
V:1 treble nm="Soprano" snm="S."
V:2 treble nm="Alto" snm="A."
V:3 treble-8 transpose=-12 nm="Tenore" snm="T."
V:4 bass nm="Basso" snm="B."
V:1
 z8 D4 E4- | E4 F8 G4 | A8 (3:2:2B4 c8- | c12 z4 | c4 d12 | =d8 e8- | e4 A8 B4 | A14 G2 | %8
w: Can- ta-|* * bo|Do- mi- no|_|in vi-|ta me-|* a, in|vi- ta|
 (!>!!tenuto!A4 !tenuto!A4 !tenuto!A4) (!>!!tenuto!A4 | %9
w: me- a can- ta-|
 !tenuto!A4 !tenuto!A4) (!>!!tenuto!A4 !tenuto!A4) | !breath!A8!p! (c2 B2 A2 G2) | %11
w: bo can- ta- bo|Deo me- * * *|
 F4!<(! (.E4 !>!_F4) (.E4 | !>!_F4) (.E4 !>!=F4)!<)! (.E4 |!mf!!>(! =f8)!>)!!p! !breath!d8 | %14
w: o in vi- ta|mea quam- di- u|sum _|
 z8!mp! _G4 A4- | A4"^poco"!<(! B8!<)! c4 | d4 e8 (f4 | d4) c4 (B8 |"^poco"!>(! A12)!mp! _G4!>)! | %19
w: Can- ta-|* bo, can-|ta- bo, psal-|* lam, psal-|* lam|
 F8 _G8 | B8 c8 |!>(! B8 c8 | B8!>)!!pp! c8- | !fermata!c16 |] %24
w: quam- di-|u sum,|quam- di-|u sum.|_|
V:2
 C4 D12 | C4 D12 | D8 E8- | E12 z4 | c8 B8 | A8 G8- | G8 F4 G4 | F4 E2 D2 C2 D6 | E8 _F8 | %9
w: Can- ta-|bo Do-|mi- no|_|in vi-|ta me-|* a in|vi- ta mea can- ta-|* bo|
 _F4 E4 F8 | !breath!E8!p! (A2 G2 F2 =E2) | C4!<(! (._A,4 !>!__B,4) (.A,4 | %12
w: De- o meo|Deo me- * * *|o in vi- ta|
 !>!_B,4) (.A,4 !>!__B,4)!<)! (.A,4 |!f!!>(! _B8)!>)!!p! !breath!F8 |!p! F4 _G12 | %15
w: mea quam- di- u|sum _|In vi-|
 F4!<)!!<(! _G12 |!mp! F8 _G8 | F16- | F4 A,4 D8- | D8 C8 | =D8 _D8 |!>(! =D8 _D8 | %22
w: ta mea|can- ta-|bo|_ quam- di-|* u,|quam- di-|u, quam-|
 =D8!>)!!pp! _D8- | (3:2:2_D8 !fermata!C16 |] %24
w: di- u|_ sum.|
V:3
 c8 B8 | c8 B8 | B8 (3:2:2c8 B4 | A12 z4 | z8 G4 A4 | B8 A8- | A4 e8 _d4 | c6 B2- B8 | c8 d8 | %9
w: Can- *|ta- *|bo Do- mi-|no|in vi-|ta me-|* a can-|ta- bo _|Do- *|
 (d4 c4) d8 | !breath!c8!p! (f2 e2 d2 B2) | =A4!<(! (.C4 !>!D4) (.C4 | %12
w: mi- * no|Deo me- * * *|o in vi- ta|
 !>!D4) (.C4 !>!D4)!<)! (.C4 |!f!!>(! !~(!d8)!>)!!pp! !~)!!breath!_g8 |!p! f8 e8 | f8 e8 | %16
w: mea quam- di- u|sum _|Can- ta-|bo Do-|
 d8!mp!!<)!!<(! c8 | B12 A4 | A4 c4 B8 | c8 B8 | F16 |!>(! E16-!>)! |!pp! E16 | =E8 !fermata!F8 |] %24
w: mi- no|can- ta-|bo Do- mi-|no quam-|di-|u|_|* sum.|
V:4
 z12 B,4 | A,8 (G,4 F,4) | E,12 D,4 | C,12 z4 | z8 G,8 | F,4 =D,4 C,8- | C,16 | F,4 (C,4 D,4) E,4 | %8
w: Can-|ta- bo _|Do- mi-|no|in|vi- ta mea,|_|in vi- * ta|
 (!>!!tenuto!B,,4 !tenuto!D,4 !tenuto!E,4) (!>!!tenuto!_G,4 | %9
w: me- a can- ta-|
 !tenuto!=F,4!<(! !tenuto!_F,8)!<)!!>)!!>(! (!>!_G,4 | !breath!A,8)!p! (F,2 D,2 (B,,2 C,2)) | %11
w: bo can- ta-|bo De- o me- *|
 F,4!<(! (.F,,4 !>!_G,,4) (.F,,4 | !>!_G,,4) (.F,,4 !>!G,,4)!<)! (.F,,4 | %13
w: o in vi- ta|mea quam- di- u|
!f!!>(! _G,8)!>)!!p! !breath!B,8 |!p! z16 | D8 C4 B,4- |!<(! B,12!<)!!mp! A,4 | =G,4 _G,12 | %18
w: sum _||Psal- lam, psal-|* lam|De- o|
 F,8 _G,4 E,4 | A,8 E,8 | B,,16 |!>(! A,,16!>)! |!pp! _G,,16 | !fermata!F,,16 |] %24
w: meo quam- di-|u sum,|quam-|di-|u|sum.|

